X:1
T:Every Morning, 77.77.77
T:Every Morning, 77.77.77
T:Edward John Hopkins, 1872
T:Public Domain Courtesy of the Cyber Hymnal™
C:Edward John Hopkins, 1872
Z:Public Domain
Z:Courtesy of the Cyber Hymnal™
%%score ( 1 2 ) ( 3 4 )
L:1/8
Q:1/4=115
M:4/4
K:Bb
V:1 treble 
V:2 treble 
V:3 bass 
V:4 bass 
V:1
 [DB]2 [EB]2 [DB]2 [Ge]2 | [Fd]3 [Ec] [EB]4 | [FB]2 [EG]2 [DF]2 [FB]2 | d3 z [Fc]4 | %4
 [FB]2 [FB]2 [GB]2 [Ge]2 | [Dd]3 [Dc] [DB]4 | [=EG]2 (AB) d3 z x | [DB]2 [=EG]2 F4 | %8
 [Fe]2 [Fe]2 [Fd]2 [GB]2 | [^Fd]3 [Fc] [GB]4 | [CA]3 [^CG] [DF]2 [FB]2 | G3 z [DB]4 |] %12
V:2
 x8 | x8 | x8 | =E2 (E2 c) x3 | x8 | x8 | x2 =E2 F2 (_E2 c) | x4 F4 | x8 | x8 | x8 | %11
 F2 (E2 A) x3 |] %12
V:3
 [B,,F,]2 [B,,G,]2 [B,,F,]2 B,2 | [F,B,]3 [F,A,] B,4 | [D,B,]2 [E,B,]2 [B,,B,]2 [D,B,]2 | %3
 [G,B,]2 [C,B,]2 [F,A,]4 | [D,B,]2 [D,B,]2 [E,B,]2 [G,B,]2 | [^F,A,]3 [F,A,] [G,B,]4 | %6
 [B,,C]2 [B,,C]2 F,2 z A,, x | [B,,G,]2 [C,B,]2 [F,A,]4 | [A,C]2 [A,C]2 B,2 [G,B,]2 | %9
 [D,A,]3 [D,A,] [G,B,]4 | [=E,B,]3 [E,B,] [F,B,]2 [F,D]2 | D2 z F, [B,,B,]4 |] %12
V:4
 x8 | x4 B,4 | x8 | x8 | x8 | x8 | x4 A,,3 ^F,2 | x8 | x8 | x8 | x8 | F,3 C2 x3 |] %12

